X: 8238
T: Cora's Tune
R: reel
M: 4/4
K: Dmajor
f2ed abf2|edBA deB2|AFED EFAF|ABdA B/c/d ed|
f2ed abf2|edBA deB2|AFED EFAF|ABde d4:|
|:B2dA BdF2|d2fd abf2|bafa fefe|dedc BAFA|
B2dA BdF2|d2fd abf2|bafa fefe|defe d4:|

